X: 35
T: Going to the Well for Water
C: Trad
I: scale 0.80
M: 6/8
G: Going to the Well for Water
L: 1/8
E: 15
K: D
|:c/2B/2|"D"A2 f A2 f|A2 f fed|"G"B2 g B2 g|B2 g gfe|"A"c3 BcB|ABA a2 f|g2 d cde|"D"d3 d2:|
|:"D"f3 fed|"A"e3 edc|"G"d3 dcB|"A"c3 cBA|"G"G2 B G2 B|"D"F2 A F2 A|"A"EFE e2 d|cBc "D"d2:|]
